Sources/FrostedUI/Resources/Icons.xcassets/camera24.imageset/camera-24.svg

<svg width="24" height="24" viewBox="0 0 24 24" fill="none" xmlns="http://www.w3.org/2000/svg" data-fui-icon="true">
  <path
    d="M14.1475 1.25C15.5523 1.25003 16.871 1.92817 17.6875 3.07129L18.2217 3.82031C18.6386 4.40382 19.3121 4.75 20.0293 4.75C22.0841 4.75019 23.7498 6.4159 23.75 8.4707V18.4004C23.7498 20.8025 21.8025 22.7498 19.4004 22.75H4.59961C2.19748 22.7498 0.250211 20.8025 0.25 18.4004V8.4707C0.250186 6.4159 1.9159 4.75019 3.9707 4.75C4.68787 4.75 5.36139 4.40382 5.77832 3.82031L6.3125 3.07129C7.12903 1.92817 8.44775 1.25003 9.85254 1.25H14.1475ZM9.85254 2.75C8.93216 2.75003 8.06816 3.19441 7.5332 3.94336L6.99902 4.69141C6.30054 5.66928 5.17242 6.25 3.9707 6.25C2.74433 6.25019 1.75019 7.24433 1.75 8.4707V18.4004C1.75021 19.9741 3.02591 21.2498 4.59961 21.25H19.4004C20.9741 21.2498 22.2498 19.9741 22.25 18.4004V8.4707C22.2498 7.24433 21.2557 6.25019 20.0293 6.25C18.8276 6.25 17.6995 5.66928 17.001 4.69141L16.4668 3.94336C15.9318 3.19441 15.0678 2.75003 14.1475 2.75H9.85254ZM12 7.5C14.8995 7.5 17.25 9.8505 17.25 12.75C17.25 15.6495 14.8995 18 12 18C9.1005 18 6.75 15.6495 6.75 12.75C6.75 9.8505 9.1005 7.5 12 7.5ZM12 9C9.92893 9 8.25 10.6789 8.25 12.75C8.25 14.8211 9.92893 16.5 12 16.5C14.0711 16.5 15.75 14.8211 15.75 12.75C15.75 10.6789 14.0711 9 12 9Z"
    fill="currentColor"
  />
</svg>

<svg xmlns="http://www.w3.org/2000/svg" width="24" height="24" fill="none" data-fui-icon="true" viewBox="0 0 24 24"><path fill="currentColor" d="M14.148 1.25a4.35 4.35 0 0 1 3.54 1.821l.534.75c.417.583 1.09.929 1.807.929a3.72 3.72 0 0 1 3.721 3.72v9.93a4.35 4.35 0 0 1-4.35 4.35H4.6A4.35 4.35 0 0 1 .25 18.4V8.47a3.72 3.72 0 0 1 3.72-3.72c.718 0 1.391-.346 1.808-.93l.535-.749a4.35 4.35 0 0 1 3.54-1.821zm-4.295 1.5a2.85 2.85 0 0 0-2.32 1.193L7 4.691A3.72 3.72 0 0 1 3.971 6.25c-1.227 0-2.22.994-2.221 2.22v9.93a2.85 2.85 0 0 0 2.85 2.85h14.8a2.85 2.85 0 0 0 2.85-2.85V8.47c0-1.226-.994-2.22-2.22-2.22-1.202 0-2.33-.58-3.029-1.559l-.534-.748a2.85 2.85 0 0 0-2.32-1.193zM12 7.5A5.25 5.25 0 1 1 12 18a5.25 5.25 0 0 1 0-10.5M12 9a3.75 3.75 0 1 0 0 7.5A3.75 3.75 0 0 0 12 9"/></svg>
